X: 43283
T: Woodcock Hill
R: hornpipe
M: 4/4
K: Dmajor
|:A2|d>cd>f e>cA>c|d>BG>B A>FD>F|E>GF>A G>Bg>f|e>dc>B A>AB>c|
d>cd>f e>^de>g|f>ef>g a>fd>A|B>dc>B A>GF>E|D2 d2 d2:|
|:B2|A>^GA>c e>cA>c|e>dc>B A>df>a|g>fe>g f>ed>f|(3efe (3dcB (3ABA (3GFE|
D>FA>d E>GB>d|F>Ad>f a>fd>A|B>dc>B (3ABA (3GFE|(3DFA (3dfa [d3/2d'3/2] z/:|

